!!!!SEGMENT: pl-sa--591-a-ix-71--004_haydn-joseph--andante.krn
!!!cenid: 18xx:661
!!!COM: Haydn, Joseph
!!!COM-rismid: pe55803
!!!CDT: 1732/03/31-1809/05/31
!!!CNT: Austrian
!!!OTL: Andante
!!!PDT:
!!!AGN: Secular
!!!SMS-siglum: PL-SA
!!!SMS-shelfmark: 591/A IX 71
!!!SMS-shelfwork: 004 W
!!!SMS-variant:
!!!SMS-altvar:
!!!NIFC-rismid: 1001113067
!!!URL-scan: http://bc.bdsandomierz.pl/dlibra/publication/1400/edition/1368/content
!!!ONB-nifc: Str. 2
**kern	**kern
*part1	*part1
*staff2	*staff1
*Ipiano	*Iempty
*I"Piano	*
*I'P-no	*
*clefF4	*clefG2
*k[]	*k[e-b-a-d-]
*A-:	*A-:
*M2/4	*M2/4
!	!LO:SIC:o:s:=:v:metrum "ułamkowe" 2/4
8ryy	16a-\LL
.	16cc\JJ
=1	=1
2ryy	8ee-\L 8cc\
.	8.ee-\J 8.cc\
.	16ee-\LL
.	16ff\
.	16dd-\JJ
=2	=2
2ryy	16dd-\LL
.	16cc\J
.	8.cc\J
.	16cc\LL
.	16dd-\
.	16b-\JJ
=3	=3
2ryy	16a-\LL
.	16b-\
.	16cc\
.	16dd-\JJ
.	16ee-\LL
.	16ff\
.	16gg\
.	16aa-\JJ
=4	=4
2ryy	8dd-\L
.	8cc\J
.	8r
.	16g\LL
.	16cc\JJ
!!LO:LB:g=original
=5	=5
2ryy	8e-/L 8c/
.	8.e-/J 8.c/
.	16e-/LL
.	16g/
.	16e-/JJ
=6	=6
2ryy	16e-/LL
.	16c/J
.	8.c/J
.	16c/LL
.	16e-/
.	16B-/JJ
=7	=7
2ryy	16A-/LL
.	16B-/
*	*Xtuplet
.	24c/
.	24d-/
.	24e-/JJ
.	16e-/LL
.	16f/
.	16g/
.	16a-/JJ
=8	=8
2ryy	8e-/L
.	8c/J
.	8r
.	8ee-\
=9	=9
*	*tuplet
!	!LO:TX:a:t=P:problem:klamra łukowa, adnotacja 3
!	!LO:TUP:a
2ryy	24ff\LL
.	24gg\
.	24aa-\JJ
.	4aa-\ 4ff\
.	16gg\LL
.	16ff\JJ
!!LO:LB:g=original
=10	=10
2ryy	16ff\LL
.	16ee-\J 16cc\
.	8ee-\J 8cc\
.	8r
.	8ee-\ 8cc\
=11	=11
!	!LO:TX:a:t=P:problem:klamra łukowa, adnotacja 3
!	!LO:TUP:a
2ryy	24dd-\LL
.	24ee-\
.	24ff\JJ
.	4ff\
.	16ee-\LL
.	16dd-\JJ
=12	=12
2ryy	16dd-\LL
.	16cc\J
.	8cc\J
.	8r
!	!LO:N:vis=4
.	8b-\
=13	=13
2ryy	16cc\LL
.	16a-\
.	16a-\
.	16a-\JJ
.	8.dd-\L
.	16b-\Jk
=14	=14
2ryy	16cc\LL
.	16a-\
.	16a-\
.	16a-\JJ
.	8.dd-\L
.	16b-\Jk
!!LO:LB:g=original
=15	=15
2ryy	16cc\LL
.	16a-\
.	16dd-\
.	16b-\JJ
.	8a-\L
.	8g\J
=16	=16
2ryy	4a-\
.	8r
.	8b-\
=17	=17
2ryy	16cc\LL
.	16a-\
.	16a-\
.	16a-\JJ
.	8.dd-\L
.	16b-\Jk
=18	=18
2ryy	16cc\LL
.	16a-\
.	16a-\
.	16a-\JJ
.	8.dd-\L
.	16b-\Jk
=19	=19
2ryy	16cc\LL
.	16a-\
.	16f\
.	16b-\JJ
.	8a-\L
.	8g\J
!!LO:LB:g=original
=20	=20
2ryy	16cc\LL
.	16a-\
.	16f\
.	16a-\JJ
.	8a-\L
.	8g\J
=21	=21
2ryy	16ee-\LL
.	16cc\
.	16ff\
.	16dd-\JJ
.	8cc\L
.	8b-\J
==	==
*-	*-
!!!system-decoration: s1,s2
!!!EED: Leszek Kubiak
!!!EST: 2020-12-14
!!!ENC:Kamil Watkowski
!!!END:2020-06-19
